X: 4005
T: COMIN THRO' THE RYE
R: Strathspey.
%R: strathspey
B: James Kerr "Merry Melodies" v.3 p.04 #5
Z: 2016 John Chambers <jc:trillian.mit.edu>
M: C
L: 1/8
K: A
|:\
vE<uE vE>uc B>A B<c | E<E F>E A3 F |\
E<E e>c B>A B<c | E<E F>E A3 c ::\
e>cA>c B>A B<c | e>c (3Ace f3 a |\
e>cd>B c>A B<c | E<E F>E A3 c :|

%%sep 1 1 500
%%sep 1 1 500

